svg/300/sharp/event_upcoming.svg

<svg xmlns="http://www.w3.org/2000/svg" width="48" height="48" viewBox="0 -960 960 960"><path d="M576.385-100.001v-45.384h198.23v-409.614h-589.23v201.537h-45.384v-441.152H271.54v-70h50.384v70h317.691v-70h49.229v70h131.155v694.613H576.385ZM320-24.385 288.385-56l119.924-121.308h-351v-45.384h351L288.385-344 320-375.615 495.615-200 320-24.385ZM185.385-600.382h589.23V-749.23h-589.23v148.848Zm0 0V-749.23v148.848Z"/></svg>

<svg xmlns="http://www.w3.org/2000/svg" width="48" height="48" viewBox="0 -960 960 960"><path d="M576.39-100v-45.39h198.22V-555H185.39v201.54H140v-441.15h131.54v-70h50.38v70h317.69v-70h49.23v70H820V-100H576.39ZM320-24.39 288.39-56l119.92-121.31h-351v-45.38h351L288.39-344 320-375.61 495.61-200 320-24.39ZM185.39-600.38h589.22v-148.85H185.39v148.85Zm0 0v-148.85 148.85Z"/></svg>
